svgs/thin/mug.svg

<svg xmlns="http://www.w3.org/2000/svg" viewBox="0 0 576 512"><!-- Font Awesome Pro 6.0.0-alpha2 by @fontawesome - https://fontawesome.com License - https://fontawesome.com/license (Commercial License) --><path d="M464 64H56C49.625 64 43.5 66.5 39 71S32 81.625 32 88V352C32 405 75 448 128 448H320C373 448 416 405 416 352V288H464C525.75 288 576 237.75 576 176S525.75 64 464 64ZM400 352C400 396.111 364.111 432 320 432H128C83.889 432 48 396.111 48 352V88C48 82.871 52.172 80 56 80H400V352ZM464 272H416V80H464C516.938 80 560 123.062 560 176S516.938 272 464 272Z"/></svg>

<svg xmlns="http://www.w3.org/2000/svg" viewBox="0 0 576 512"><!--! Font Awesome Pro 6.0.0-alpha3 by @fontawesome - https://fontawesome.com License - https://fontawesome.com/license (Commercial License) --><path d="M464 64H56C49.63 64 43.5 66.5 39 71S32 81.63 32 88V352c0 53 43 96 96 96h192c53 0 96-43 96-96V288h48C525.8 288 576 237.8 576 176S525.8 64 464 64zM400 352c0 44.11-35.89 80-80 80H128c-44.11 0-80-35.89-80-80V88c0-5.129 4.172-8 8-8H400V352zM464 272H416v-192h48c52.94 0 96 43.06 96 96S516.9 272 464 272z"/></svg>
